!!!SOCIAL_FUNCTION:	moccasin game songs
!!!PDT:	1909
!!!OTL: No_170.krn
!!!REG: Great_Lakes
!!!LANG: Non-Tone
!!!LING_GROUP: Algonquin
**kern	**kern
*staff2	*staff1
=1-	=1-
*clefF4	*clefG2
*k[f#c#g#]	*k[f#c#g#]
*M2/4	*M2/4
16GG#/LK	4F#/
8GG#^/J	.
16r	.
16GG#/LK	4f#/
8GG#^/J	.
16r	.
=2	=2
16GG#/LK	4f#/
8GG#^/J	.
16r	.
16GG#/LK	4f#/
8GG#^/J	.
16r	.
=3	=3
2r	4f#/
.	8.f#/L
.	16e/Jk
=4	=4
2r	4c#/
.	8c#/L
.	8B/J
=5	=5
2r	8G#/L
.	8c#/J
.	8.c#/L
.	16B/Jk
*	*clefF4
=6	=6
2r	[2A\
=7	=7
2r	4A\]
.	4F#\
=8||	=8||
*M3/4	*M3/4
2.r	8A\L
.	8A\J
.	12A\L
.	12A\
.	12c#\J
.	8.c#\L
.	16B\Jk
=9	=9
2.r	8.A\L
.	16F#\Jk
.	8A\L
.	8F#\J
.	8.F#\L
.	16F#\Jk
=10	=10
2.r	2.F#\
==	==
*-	*-
